!!!!SEGMENT: pl-wtm--r-704-m--018_moniuszko-stanislaw--widma-no-12.krn
!!!cenid: 18xx:3073
!!!COM: Moniuszko, Stanisław
!!!COM-rismID: pe30008351
!!!CDT: 1819/05/05-1872/06/04
!!!CNT: Polish
!!!GTL: Widma
!!!OTL: No. 12
!!!OMV: 018
!!!PDT: 1852
!!!AGN: Secular
!!!SMS-siglum: PL-Wtm
!!!SMS-shelfmark: R 704/M
!!!SMS-shelfwork: G
!!!SMS-variant:
!!!SMS-altvar:
!!!NIFC-rismSourceID: 1001093778
!!!NIFC-islandoraID:
!!!URL-pdf-islandora:
!!!URL-scan:
!!!ONB-nifc: UWAGA: skan 0064. Nie wpisywać tekstu rosyjskiego i samodzielnych dialogów poza krótkimi didaskaliami.
!!!AIN: 1 alto 3 empty 1 forte 1 soprn 1 tenor
!!!key:
**kern	**kern	**dynam	**kern	**text	**text	**dynam	**kern	**text	**text	**dynam	**kern	**text	**text	**dynam	**kern	**text	**text	**dynam	**kern
*	*	*	*	*color:red	*	*	*	*color:red	*	*	*	*color:red	*	*	*	*	*color:red	*	*
*group3	*group3	*	*group2	*	*	*	*group2	*	*	*	*group2	*	*	*	*group2	*	*	*	*group1
*part7	*part6	*part6	*part5	*part5	*part5	*part5	*part4	*part4	*part4	*part4	*part3	*part3	*part3	*part3	*part2	*part2	*part2	*part2	*part1
*staff7	*staff6	*	*staff5	*staff5	*staff5	*	*staff4	*staff4	*staff4	*	*staff3	*staff3	*staff3	*	*staff2	*staff2	*staff2	*	*staff1
*	*	*	*	*	*	*	*	*	*	*	*	*	*	*	*I""Chór.	*	*	*	*
*Iempty	*Iforte	*	*Iempty	*	*	*	*Itenor	*	*	*	*Ialto	*	*	*	*Isoprn	*	*	*	*Iempty
*I	*I"Forte piano._	*	*I"[Basso]	*	*	*	*I"[Tenore]	*	*	*	*I"[Alto]	*	*	*	*I"[Soprano]	*	*	*	*I"Dziewczyna. la fanciulla
*clefF4	*clefG2	*	*clefF4	*	*	*	*clefGv2	*	*	*	*clefG2	*	*	*	*clefG2	*	*	*	*clefG2
*k[b-]	*k[b-]	*	*k[b-]	*	*	*	*k[b-]	*	*	*	*k[b-]	*	*	*	*k[b-]	*	*	*	*k[b-]
*F:	*F:	*	*F:	*	*	*	*F:	*	*	*	*F:	*	*	*	*F:	*	*	*	*F:
*M4/4	*M4/4	*	*M4/4	*	*	*	*M4/4	*	*	*	*M4/4	*	*	*	*M4/4	*	*	*	*M4/4
*met(c)	*met(c)	*	*met(c)	*	*	*	*met(c)	*	*	*	*met(c)	*	*	*	*met(c)	*	*	*	*met(c)
=1	=1	=1	=1	=1	=1	=1	=1	=1	=1	=1	=1	=1	=1	=1	=1	=1	=1	=1	=1
*2\right	*	*	*	*	*	*	*	*	*	*	*	*	*	*	*	*	*	*	*
!	!	!LO:DY:rj:t=ppp.	!	!	!	!	!LO:TX:t=P:problem=partia zapisana bez przenośnika oktawowego	!	!	!	!	!	!	!	!	!	!	!	!
2F;>\ 2A	2c;>/ 2f	ppp	1ryy	.	.	.	1ryy	.	.	.	1ryy	.	.	.	1ryy	.	.	.	1ryy
2D;\ 2A	2f;/ 2a	.	.	.	.	.	.	.	.	.	.	.	.	.	.	.	.	.	.
!!LO:LB:g=original
=2	=2	=2	=2	=2	=2	=2	=2	=2	=2	=2	=2	=2	=2	=2	=2	=2	=2	=2	=2
*^	*^	*	*	*	*	*	*	*	*	*	*	*	*	*	*	*	*	*	*
*	*^	*	*	*	*	*	*	*	*	*	*	*	*	*	*	*	*	*	*	*	*
*	*	*	*	*2\right	*	*	*	*	*	*	*	*	*	*	*	*	*	*	*	*	*	*
[<2G/	2ryy	2BB-\	(<4dd/	2f\	.	1ryy	.	.	.	1ryy	.	.	.	1ryy	.	.	.	1ryy	.	.	.	1ryy
.	.	.	4dd-X/	.	.	.	.	.	.	.	.	.	.	.	.	.	.	.	.	.	.	.
2G/]	4c;>/	2C\	2cc;>/)	2e\	.	.	.	.	.	.	.	.	.	.	.	.	.	.	.	.	.	.
.	4B-/	.	.	.	.	.	.	.	.	.	.	.	.	.	.	.	.	.	.	.	.	.
*	*v	*v	*	*	*	*	*	*	*	*	*	*	*	*	*	*	*	*	*	*	*	*
=3	=3	=3	=3	=3	=3	=3	=3	=3	=3	=3	=3	=3	=3	=3	=3	=3	=3	=3	=3	=3	=3
!LO:TX:a:t=à tempo.	!	!	!	!	!	!	!	!	!	!	!	!	!	!	!	!	!	!	!	!	!LO:TX:a:B:t=Lento
2A/	1F	[>2.cc/	2f\	.	1ryy	.	.	.	1ryy	.	.	.	1ryy	.	.	.	1ryy	.	.	.	1ryy
4G/	.	.	2e\	.	.	.	.	.	.	.	.	.	.	.	.	.	.	.	.	.	.
4c/	.	8cc/L]	.	.	.	.	.	.	.	.	.	.	.	.	.	.	.	.	.	.	.
.	.	8b-/J	.	.	.	.	.	.	.	.	.	.	.	.	.	.	.	.	.	.	.
=4	=4	=4	=4	=4	=4	=4	=4	=4	=4	=4	=4	=4	=4	=4	=4	=4	=4	=4	=4	=4	=4
2.c/	2.F\	2.a/	2.f\	.	2.ryy	.	.	.	2.ryy	.	.	.	2.ryy	.	.	.	2.ryy	.	.	.	2.ryy
*v	*v	*	*	*	*	*	*	*	*	*	*	*	*	*	*	*	*	*	*	*	*
*	*v	*v	*	*	*	*	*	*	*	*	*	*	*	*	*	*	*	*	*	*
!!LO:LB:g=original
=5	=5	=5	=5	=5	=5	=5	=5	=5	=5	=5	=5	=5	=5	=5	=5	=5	=5	=5	=5
!	!	!	!	!	!	!	!	!	!	!	!	!	!	!	!LO:TX:a:t=Chór.:note=podkreślone	!	!	!	!
!	!	!	!	!	!	!LO:DY:a:rj:t=p.	!	!	!	!LO:DY:a:rj:t=p.	!	!	!	!LO:DY:a:rj:t=p.	!LO:TX:a:B:t=Lento	!	!	!LO:DY:a:rj:t=p.	!
4ryy	4ryy	.	[>4F\	Poi-	zważ-	p	8A/	Poi-	Bo	p	[<4f/	Poi-	zważ-	p	8f/	Bo	Poi-	p	4ryy
.	.	.	.	.	.	.	8B-/	-ché	słu-	.	.	.	.	.	8g/	słu-	-ché	.	.
=6	=6	=6	=6	=6	=6	=6	=6	=6	=6	=6	=6	=6	=6	=6	=6	=6	=6	=6	=6
*	*	*	*2\right	*	*	*	*	*	*	*	*	*	*	*	*	*	*	*	*
1ryy	1ryy	.	2.F\]	.	.	.	4c\	no-	-chaj-	.	2f/]	.	.	.	4a/	-chaj-	no-	.	1ryy
.	.	.	.	.	.	.	8A\	-to	-my	.	.	.	.	.	8f/	-my	-to	.	.
.	.	.	.	.	.	.	8A\	ci	i	.	.	.	.	.	8f/	i	ci	.	.
.	.	.	.	.	.	.	4d\	sia	zważ-	.	4f/	-ché	-my	.	4b-/	zważ-	sia	.	.
.	.	.	8F\	-ché	-my	.	8c\	che	-my	.	4f/	la	u	.	8a/	-my	che	.	.
.	.	.	8F\	la	u	.	8B-\	la	u	.	.	.	.	.	8g/	u	la	.	.
=7	=7	=7	=7	=7	=7	=7	=7	=7	=7	=7	=7	=7	=7	=7	=7	=7	=7	=7	=7
*	*	*	*	*	*	*	*\2right	*	*	*	*	*	*	*	*	*	*	*	*
1ryy	1ryy	.	2F\	sor-	[sie-	.	2c\	sor-	[sie-	.	2f/	sor-	[sie-	.	2a/	sie-	sor-	.	1ryy
.	.	.	8F\	-te	-bie,	.	8F/	-te	-bie	.	8f/	-te	-bie,	.	8f/	-bie,	-te,	.	.
.	.	.	8r	.	.	.	8r	.	.	.	8r	.	.	.	8r	.	.	.	.
.	.	.	4D\	.	że	.	4F/	de-	że	.	4f/	de-	że	.	4f/	że	de-	.	.
=8	=8	=8	=8	=8	=8	=8	=8	=8	=8	=8	=8	=8	=8	=8	=8	=8	=8	=8	=8
!	!	!	!	!	!	!LO:HP:a	!	!	!	!LO:HP:a	!	!	!	!LO:HP:a	!	!	!	!LO:HP:a	!
1ryy	1ryy	.	4E-X\	.	we-	<	4B-\	-cre-	we-	<	4f^</	-cre-	we-	<	4g/	we-	-cre-	<	1ryy
.	.	.	8E-\	.	-dług	.	8B-\	-ta	-dług	.	8e/	-ta	-dług	.	8g/	-dług	-ta	.	.
.	.	.	8E-\	.	bo-	.	8B-\	con	bo-	.	8g/	con	bo-	.	8g/	bo-	con	.	.
.	.	.	4D\	.	-że-	.	4B-\	legge	-że-	.	4f/	legge	-że-	.	4b-\	-że-	legge	.	.
.	.	.	8D\	.	-go	.	8B-\	im-	-go	.	8f/	im-	-go	.	8cc\	-go	im-	.	.
.	.	.	8D\	.	ros-	[[	8B-\	-mu-	ros-	[[	8f/	-mu-	ros	[[	8dd\	ros-	-mu-	[[	.
!!LO:PB:g=original
=9	=9	=9	=9	=9	=9	=9	=9	=9	=9	=9	=9	=9	=9	=9	=9	=9	=9	=9	=9
!	!	!	!	!	!	!LO:HP:a	!	!	!	!LO:HP:a	!	!	!	!LO:HP:a	!	!	!	!LO:HP:a	!
1ryy	1ryy	.	(>4C\	.	.	>	(>4B-\	ta-	.	>	(<4g/	.	ka-	>	2ee\	-ka-	-ta-	>	1ryy
.	.	.	4F\)	.	.	.	4A\)	.	.	.	4f/)	.	.	.	.	.	.	.	.
.	.	.	8BB-/	.	.	]	8B-\	-ta.	.	]	8f/	.	-zu,	]	8dd\	-zu,	-ta:	]	.
.	.	.	8r	.	.	.	8r	.	.	.	8r	.	.	.	8r	.	.	.	.
.	.	.	8.B-\	.	.	.	8.d\	,,Chi	.	.	8.f/	.	kto	.	8.dd^>\	kto	,,Chi	.	.
.	.	.	16B-\	.	.	.	16e\	la	.	.	16g/	.	nie	.	16cc\	nie	la	.	.
=10	=10	=10	=10	=10	=10	=10	=10	=10	=10	=10	=10	=10	=10	=10	=10	=10	=10	=10	=10
1ryy	1ryy	.	4A^>\	.	.	.	4e^>\	ter-	.	.	4g^</	.	dot-	.	4cc^>\	dot-	ter-	.	1ryy
.	.	.	8A\	.	.	.	8f\	-ra	.	.	8c/	.	-knął	.	8f/	-knął	-ra	.	.
.	.	.	8A\	.	.	.	8c\	non	.	.	8f/	.	tu	.	8f/	tu	non	.	.
.	.	.	4A\	.	.	.	4d\	ab-	.	.	4f/	.	zie-	.	4b-\	zie-	ab-	.	.
.	.	.	16G\LL	.	.	.	8.c#X\	-bia	.	.	8.e/	.	-mi	.	8.b-\	-mi	-bia	.	.
.	.	.	16F\JJ	.	.	.	.	.	.	.	.	.	.	.	.	.	.	.	.
.	.	.	16E\LL	.	.	.	.	.	.	.	.	.	.	.	.	.	.	.	.
.	.	.	16D\JJ	.	.	.	16d\	toc-	.	.	16d/	.	ni	.	16b-\	ni	toc-	.	.
=11	=11	=11	=11	=11	=11	=11	=11	=11	=11	=11	=11	=11	=11	=11	=11	=11	=11	=11	=11
*	*	*	*	*	*	*	*^	*	*	*	*	*	*	*	*	*	*	*	*
1ryy	1ryy	.	2D^>\	.	.	.	2G^>/	2.ryy	-ca-	.	.	2e^>/	.	ra-	.	2b-^>\	ra-	-ca-	.	1ryy
.	.	.	8C#X\	.	.	.	8A/	.	-ta,	.	.	8e/	.	-zu	.	8a\	-zu	-ta,	.	.
.	.	.	8r	.	.	.	8r	.	.	.	.	8r	.	.	.	8r	.	.	.	.
!	!	!	!	!	!	!LO:DY:a:t=pp.:rj	!	!	!	!	!LO:DY:a:t=pp.:rj	!	!	!	!LO:DY:a:t=pp.:rj	!	!	!	!LO:DY:a:t=pp.:rj	!
.	.	.	8D\	ten	tro-	pp	8F/	8F\	tro-	.	pp	8d/	.	ten	pp	8d/ 8f	ten	tro-	pp	.
.	.	.	8D\	nie	-ra	.	8G/	8E\	-ra	.	.	8d/	.	nie	.	8e/ 8g	nie	-ra	.	.
=12	=12	=12	=12	=12	=12	=12	=12	=12	=12	=12	=12	=12	=12	=12	=12	=12	=12	=12	=12	=12
1ryy	1ryy	.	[>1D	mo-	chiu-	.	4A/	4F\	chiu-	.	.	4d/	.	mo-	.	4f/ 4a	mo-	chiu-	.	1ryy
.	.	.	.	.	.	.	8A/	8F\	-se	.	.	8d/	.	-że	.	8f/ 8a	-że	-se	.	.
.	.	.	.	.	.	.	8A/	8F\	del	.	.	8d/	.	być	.	8f/ 8a	być	del	.	.
.	.	.	.	.	.	.	4c/	4A\	ciel	.	.	4d/	.	nig-	.	4a\ 4cc	nig-	ciel	.	.
.	.	.	.	.	.	.	4B-/	4G\	le	.	.	4d/	.	-dy	.	4g\ 4b-	-dy	le	.	.
!!LO:LB:g=original
=13	=13	=13	=13	=13	=13	=13	=13	=13	=13	=13	=13	=13	=13	=13	=13	=13	=13	=13	=13	=13
*	*	*	*	*	*	*	*	*	*	*	*	*	*	*	*	*^	*	*	*	*
1ryy	1ryy	.	2D\]	.	.	.	2A/	2F\	por-	[w nie-	.	2d/	.	w nie	.	2a/	2f\	w nie-	por-	.	1ryy
.	.	.	8D\	-że,	-se,	.	8A/	8A\	-te,	-bie,	.	8d/	.	bie,	.	8f/	8f\	-bie,	-te,	.	.
.	.	.	8r	.	.	.	8r	4.ryy	.	.	.	8r	.	.	.	8r	4.ryy	.	.	.	.
.	.	.	8D\L	ten	del	.	8A/L	.	del	ten	.	4f/	.	ten	.	8f/L	.	ten	del	.	.
.	.	.	8D-X\J	.	.	.	8B-/J	.	.	.	.	.	.	.	.	8g/J	.	.	.	.	.
*	*	*	*	*	*	*	*v	*v	*	*	*	*	*	*	*	*v	*v	*	*	*	*
=14	=14	=14	=14	=14	=14	=14	=14	=14	=14	=14	=14	=14	=14	=14	=14	=14	=14	=14	=14
!	!	!	!	!	!	!LO:HP:a	!	!	!	!LO:HP:a	!	!	!	!LO:HP:a	!	!	!	!LO:HP:a	!
1ryy	1ryy	.	4C/	[nig-	ciel	<	4c\	ciel	nig-	<	4f/	.	nig-	<	4a/	nig-	ciel	<	1ryy
.	.	.	8C/	-dy	tro-	.	8A/	tro-	-dy	.	8f/	.	-dy	.	8f/	-dy	tro-	.	.
.	.	.	8C/	nie	-ra	.	8F/	-ra	nie	.	8f/	.	nie	.	8f/	nie	-ra	.	.
!	!	!	!	!	!	!LO:HP:a	!	!	!	!LO:HP:a	!	!	!	!LO:HP:a	!	!	!	!LO:HP:a	!
.	.	.	4C/	mo-	chiu-	[ >	(<4F/	chiu-	mo-	[ >	(<4d/	.	mo-	[ >	(>4b-\	mo-	chiu-	[ >	.
.	.	.	8C/@	-że	-se-	.	8E/)	-se	-że	.	8c/)	.	-że	.	8a\)	-że	-se	.	.
.	.	.	8C/	być	-l	]]	8c\	le	być	]]	8B-/	.	być	]]	8g\	być	le	]]	.
=15	=15	=15	=15	=15	=15	=15	=15	=15	=15	=15	=15	=15	=15	=15	=15	=15	=15	=15	=15
1ryy	1ryy	.	1FF 1F	w nie-]	por-	.	1c	por-	w nie]-	.	1A	.	w nie]-	.	1f	w nie-	por-	.	1ryy
=16	=16	=16	=16	=16	=16	=16	=16	=16	=16	=16	=16	=16	=16	=16	=16	=16	=16	=16	=16
*	*	*	*^	*	*	*	*	*	*	*	*	*	*	*	*	*	*	*	*
1ryy	1ryy	.	4FF/	4FF\	-bie.	-te.,,	.	4F/	-te.,,	-bie.	.	4A/	.	-bie.	.	4f/	-bie.	-te.,,	.	1ryy
.	.	.	4r	2.ryy	.	.	.	4r	.	.	.	4r	.	.	.	4r	.	.	.	.
!	!	!	!	!	!	!	!	!	!	!	!	!LO:TX:b:t=fine:note=za linią końcową	!	!	!	!LO:TX:t=P:problem=fermata nad i pod końcową linią	!	!	!	!
.	.	.	2r	.	.	.	.	2r	.	.	.	2r	.	.	.	2r	.	.	.	.
*	*	*	*v	*v	*	*	*	*	*	*	*	*	*	*	*	*	*	*	*	*
==	==	==	==	==	==	==	==	==	==	==	==	==	==	==	==	==	==	==	==
*-	*-	*-	*-	*-	*-	*-	*-	*-	*-	*-	*-	*-	*-	*-	*-	*-	*-	*-	*-
!!!system-decoration: g1[(g2)][(g3)]
!!!RDF**kern: > = above
!!!RDF**kern: < = below
!!!RDF**kern: @ = marked note, color=red
!!!ENC: Filip Voros
!!!END: 2021-09-18
!!!EED: Jędrzej Mróz
!!!ESR: 2021-10-12
!!!YEC: Copyright 2022 Narodowy Instytut Fryderyka Chopina (https://polishscores.org)
!!!YEM: Licence CC BY 4.0 (https://creativecommons.org/licenses/by/4.0)
